assets/efishery/ikan-streamline-mas.svg

<svg width="24" height="25" viewBox="0 0 24 25" fill="none" xmlns="http://www.w3.org/2000/svg">
<path d="M14.6617 13.0197C14.9462 13.1264 15.2044 13.2436 15.3289 13.3215C15.5629 13.468 15.6341 13.7766 15.4876 14.0107C15.3411 14.2448 15.0326 14.3159 14.7985 14.1694L14.7862 14.1623L14.7526 14.1447L14.6905 14.1145L14.643 14.0925L14.5433 14.0488L14.4909 14.0271C14.4352 14.0041 14.3747 13.9802 14.3103 13.956C14.1401 13.8921 13.9513 13.8296 13.7649 13.7807C13.6647 13.7546 13.5651 13.7322 13.4693 13.7153C13.2415 13.6755 13.1008 13.6801 13.0295 13.6924C13.032 13.7148 13.0372 13.7451 13.0475 13.7849C13.2438 14.5388 13.5498 14.813 13.7791 14.8957C14.0121 14.9795 14.3533 14.9331 14.7682 14.6291C14.8675 14.5564 14.9848 14.5256 15.0987 14.5337C15.2402 14.5437 15.3766 14.6135 15.467 14.737C15.6302 14.9597 15.582 15.2727 15.3592 15.4358C14.7961 15.8484 14.1043 16.0754 13.4405 15.8364C12.7729 15.5962 12.3179 14.9514 12.0799 14.0371C12.0486 13.9175 12.0287 13.7944 12.0274 13.6716C12.0265 13.5864 12.0345 13.5012 12.0538 13.4175C12.0603 13.3891 12.0682 13.3611 12.0774 13.333C12.1585 13.0871 12.3277 12.916 12.5276 12.8144C12.707 12.7234 12.91 12.6887 13.1093 12.6843C13.2979 12.6799 13.4831 12.7026 13.6415 12.7302C13.9985 12.7927 14.3672 12.9092 14.6617 13.0197Z" fill="#1D1D1D"/>
<path d="M19.0274 13.1836C19.3035 13.1836 19.5274 12.9597 19.5274 12.6836C19.5274 12.6228 19.5165 12.5644 19.4966 12.5105C19.4263 12.3198 19.2427 12.1836 19.0274 12.1836C18.7513 12.1836 18.5274 12.4074 18.5274 12.6836C18.5274 12.8091 18.5737 12.9238 18.6501 13.0117C18.7417 13.1169 18.8768 13.1836 19.0274 13.1836Z" fill="#1D1D1D"/>
<path fill-rule="evenodd" clip-rule="evenodd" d="M11.8141 3.46408C10.2303 3.93332 8.63444 5.00974 7.44889 6.06833C6.85112 6.60227 6.33476 7.15183 5.96074 7.64914C5.77421 7.89694 5.61296 8.14548 5.49516 8.38278C5.43449 8.5051 5.37455 8.64572 5.33293 8.79685C5.29887 8.91989 5.27714 9.05027 5.27714 9.18332C5.27714 9.728 5.56572 10.1184 5.88969 10.3613C6.05314 10.4839 6.23344 10.5764 6.41069 10.6472C6.13725 10.8994 5.89164 11.1538 5.67949 11.407C5.19633 11.3359 4.66166 11.1269 4.132 10.8296C3.48161 10.4643 2.91105 10.0066 2.55778 9.65329C2.29326 9.38864 1.87419 9.35959 1.5756 9.58493C1.20927 9.8613 1.01359 10.2368 1.00065 10.6662C1.00004 10.6863 0.99992 10.7063 1.00004 10.7263L1.00187 10.7881C1.00663 10.8845 1.01994 10.9792 1.03862 11.0705C1.05656 11.1587 1.07963 11.2436 1.1049 11.3242C1.13884 11.4321 1.1768 11.5322 1.21208 11.6208C1.26713 11.7595 1.32353 11.8916 1.3787 12.0205C1.55436 12.4309 1.71733 12.812 1.78483 13.2888C1.80497 13.4311 1.79081 13.633 1.73637 13.9262C1.71 14.0676 1.67753 14.2151 1.64152 14.3767L1.6353 14.4048C1.60197 14.5542 1.56572 14.7163 1.53447 14.8779C1.41496 15.4956 1.27372 16.4905 1.99711 17.2138C2.08586 17.3027 2.1945 17.3669 2.3123 17.4021C2.39225 17.426 2.47636 17.4367 2.56144 17.4328C2.64616 17.4289 2.72868 17.4109 2.80583 17.3801C2.87602 17.352 2.94169 17.3134 3.00065 17.2654C3.01762 17.2517 3.03398 17.237 3.04973 17.2219C3.06865 17.2036 3.08659 17.1841 3.10356 17.1638L3.19389 17.0551L3.19645 17.0522C3.60417 16.562 4.0153 16.0676 4.47746 15.7212C4.58403 15.6411 4.6873 15.5735 4.78825 15.5183C4.89555 15.4594 5.00016 15.4148 5.10319 15.3842C5.06266 15.4175 5.02214 15.4509 4.98185 15.4848C4.57878 15.8244 4.07243 16.3015 3.8311 16.905C3.71037 17.2068 3.79765 17.5517 4.04728 17.7597C5.66032 19.104 7.03129 19.3962 8.17778 18.9436C9.01945 18.6115 9.58439 17.9201 9.9351 17.4194C10.0907 17.4616 10.2486 17.5017 10.4084 17.5395C10.2227 17.7651 10.0785 18.0544 10.0529 18.4135C10.0282 18.7588 10.1167 19.1206 10.3167 19.4983C10.3506 19.5625 10.3879 19.6272 10.4283 19.6924C10.488 19.7885 10.5546 19.8855 10.6282 19.9836C11.0557 20.5537 11.5801 20.883 12.1772 20.7683C12.7062 20.6667 13.1012 20.24 13.3764 19.8437C13.7796 19.2632 14.0955 18.4929 14.303 17.9206C16.3728 17.8244 18.2333 17.1938 19.6183 16.4162C19.9734 16.2168 20.302 16.0051 20.5981 15.7866C20.8424 15.6062 21.0647 15.4211 21.2613 15.2343C21.3311 15.1682 21.3976 15.1018 21.4607 15.0351C21.8847 14.5881 22.2774 14.0107 22.2774 13.3938C22.2774 13.2549 22.2566 13.1098 22.2229 12.9651C22.1838 12.7971 22.1272 12.6291 22.0651 12.4707C21.9422 12.1574 21.7679 11.8086 21.5531 11.446C21.1238 10.7207 20.5096 9.9011 19.7541 9.15598C18.9488 8.36179 17.9342 7.60837 16.7774 7.17868C16.7773 7.15329 16.7758 7.12766 16.773 7.10202C16.7646 7.0239 16.7436 6.94602 16.709 6.87058C16.6846 6.8176 16.6592 6.75803 16.6316 6.69065L16.6008 6.61447L16.5607 6.51413L16.5298 6.43601L16.5253 6.42478C16.4571 6.25217 16.3777 6.05124 16.2872 5.84323C16.1032 5.42063 15.857 4.92966 15.507 4.49289C15.1525 4.05075 14.6764 3.64524 14.0345 3.43064C13.3896 3.21506 12.6503 3.21653 11.8141 3.46408ZM8.43181 16.9165C8.17936 16.8147 7.93669 16.7072 7.70512 16.5952C7.34599 16.4211 7.00785 16.2329 6.69804 16.0327C6.63664 16.0827 6.57499 16.1316 6.5153 16.1787L6.38884 16.278L6.38298 16.2824C6.30937 16.3403 6.23661 16.3974 6.16447 16.4551C6.09184 16.5132 6.01982 16.5717 5.94804 16.6323L5.85527 16.7119C5.81181 16.7497 5.77055 16.7868 5.73137 16.8232C5.66032 16.8889 5.59611 16.9524 5.53862 17.0134C6.60331 17.7495 7.24931 17.6975 7.627 17.5486C7.80754 17.4773 7.97038 17.3698 8.12053 17.2387C8.23051 17.1426 8.33366 17.0334 8.43181 16.9165ZM6.63578 12.622C6.62358 12.6389 6.61076 12.6552 6.59721 12.6711C6.35063 13.0246 6.27739 13.2685 6.27739 13.3938C6.27739 13.5254 6.36393 13.7917 6.73869 14.165C7.0988 14.5234 7.64848 14.9009 8.35917 15.2451C9.77836 15.9328 11.7237 16.4333 13.7559 16.4333C14.9759 16.4333 16.1268 16.2141 17.1354 15.8769C16.4179 14.9741 15.9782 13.9123 16.0318 12.7983C16.0882 11.6291 16.6824 10.498 17.8903 9.51389C16.7066 8.60251 15.3343 8.08078 13.9285 8.41306C11.9175 8.88864 9.94877 9.85129 8.49199 10.8923C7.76359 11.4126 7.18535 11.937 6.79765 12.4082C6.75126 12.4646 6.70866 12.5188 6.66972 12.571C6.6591 12.5886 6.64775 12.6057 6.63578 12.622ZM18.6574 10.1814C17.5198 11.0569 17.0718 11.9897 17.0307 12.8464C16.9873 13.7458 17.3859 14.6721 18.1189 15.4931C18.3897 15.3713 18.6454 15.2422 18.8841 15.1081C19.5381 14.7412 20.0426 14.3503 20.3726 14.0027C20.4413 13.9301 20.5004 13.8618 20.5506 13.7981C20.5839 13.7558 20.6132 13.7155 20.6388 13.6777C20.6673 13.6357 20.6912 13.5967 20.711 13.5605C20.752 13.4851 20.7677 13.4363 20.7737 13.4116L20.777 13.3952L20.7774 13.393C20.777 13.3877 20.7746 13.3554 20.7585 13.2907C20.7413 13.2207 20.7123 13.1299 20.6687 13.0188C20.5813 12.7961 20.4458 12.5202 20.2624 12.2102C19.8952 11.5898 19.3595 10.8735 18.7007 10.2238L18.6574 10.1814ZM3.39775 12.1377C3.61564 12.26 3.84721 12.3772 4.08842 12.4824C4.34257 12.593 4.60746 12.6904 4.8787 12.7661C4.81413 12.9726 4.77739 13.1826 4.77739 13.3938C4.77739 13.5683 4.8018 13.7375 4.84599 13.9013C4.36699 14.0127 3.94011 14.249 3.57744 14.521C3.39116 14.6609 3.2133 14.8161 3.04496 14.9782C3.06205 14.8982 3.08036 14.8161 3.09953 14.7302L3.10063 14.7251L3.10563 14.7029L3.10746 14.6948L3.1143 14.664C3.13676 14.5622 3.1602 14.456 3.18217 14.3486C3.19218 14.2995 3.20195 14.25 3.2111 14.2004C3.24199 14.0344 3.27055 13.852 3.28447 13.6623C3.2985 13.4719 3.29777 13.2744 3.27006 13.0783C3.20659 12.6306 3.07292 12.2134 2.93657 11.8596C3.08561 11.9555 3.23967 12.0488 3.39775 12.1377ZM15.0673 6.81736C15.018 6.69406 14.9671 6.56882 14.9119 6.44211C14.8171 6.22409 14.7149 6.0134 14.6008 5.81906C14.5193 5.68039 14.4318 5.55002 14.3365 5.43088C14.1117 5.15061 13.8598 4.95383 13.5589 4.85324C13.2608 4.75339 12.8422 4.72409 12.2402 4.90232C10.9476 5.28513 9.5435 6.20896 8.44804 7.18723C7.90544 7.67185 7.4611 8.14987 7.15947 8.55075C7.00834 8.75193 6.90312 8.92014 6.83879 9.04953C6.81401 9.09958 6.79899 9.13645 6.78996 9.16159C6.8621 9.21555 7.00139 9.27878 7.20915 9.33054C7.40641 9.37986 7.61332 9.40647 7.77702 9.42014C7.856 9.42697 7.92131 9.43015 7.96598 9.43186C9.52287 8.38303 11.522 7.44089 13.5833 6.95334C14.0914 6.83322 14.5872 6.79294 15.0673 6.81736Z" fill="#1D1D1D"/>
</svg>

<svg viewBox="0 0 24 25" xmlns="http://www.w3.org/2000/svg">
  <path d="M14.662 13.02c.284.106.542.224.667.302a.5.5 0 0 1-.53.847l-.013-.007-.033-.017-.063-.03-.047-.023-.1-.043-.052-.022a6.059 6.059 0 0 0-.726-.246c-.1-.026-.2-.049-.296-.066a1.374 1.374 0 0 0-.44-.023.67.67 0 0 0 .018.093c.197.754.503 1.028.732 1.11.233.085.574.038.99-.266a.498.498 0 0 1 .698.108.5.5 0 0 1-.108.699c-.563.412-1.255.64-1.918.4-.668-.24-1.123-.885-1.361-1.799a1.513 1.513 0 0 1-.053-.365 1.078 1.078 0 0 1 .05-.339.887.887 0 0 1 .45-.519 1.35 1.35 0 0 1 .582-.13c.189-.004.374.019.533.046.357.063.725.18 1.02.29zM19.027 13.184a.5.5 0 1 0 0-1 .5.5 0 0 0 0 1z"/>
  <path fill-rule="evenodd" clip-rule="evenodd" d="M11.814 3.464c-1.584.47-3.18 1.546-4.365 2.604A11.383 11.383 0 0 0 5.96 7.65a4.805 4.805 0 0 0-.466.734c-.06.122-.12.263-.162.414a1.453 1.453 0 0 0-.056.386c0 .545.289.935.613 1.178.163.123.343.215.52.286a8.264 8.264 0 0 0-.73.76c-.484-.071-1.018-.28-1.548-.577a7.616 7.616 0 0 1-1.574-1.177.75.75 0 0 0-.982-.068A1.374 1.374 0 0 0 1 10.726l.002.062c.005.096.018.191.037.282.018.089.04.174.066.254.034.108.072.208.107.297.055.138.112.27.167.4.175.41.338.791.406 1.268.02.142.006.344-.049.637-.026.142-.058.29-.094.45l-.007.029c-.033.15-.07.311-.1.473-.12.618-.261 1.613.462 2.336a.748.748 0 0 0 1.107-.05l.09-.109.002-.003c.408-.49.82-.984 1.281-1.33.107-.08.21-.149.311-.204.108-.059.212-.103.315-.134l-.121.1c-.403.34-.91.818-1.15 1.421a.75.75 0 0 0 .215.855c1.613 1.344 2.984 1.636 4.13 1.184.842-.332 1.407-1.024 1.758-1.525.156.043.314.083.473.12-.185.226-.33.515-.355.874-.025.346.064.708.264 1.085a4.027 4.027 0 0 0 .311.485c.428.57.952.9 1.55.785.528-.101.923-.528 1.198-.924.404-.58.72-1.351.927-1.923 2.07-.097 3.93-.727 5.315-1.505.355-.2.684-.41.98-.63a7.006 7.006 0 0 0 .863-.75c.424-.448.816-1.025.816-1.642 0-.14-.02-.284-.054-.429a3.62 3.62 0 0 0-.158-.494 7.257 7.257 0 0 0-.512-1.025 11.583 11.583 0 0 0-1.799-2.29c-.805-.794-1.82-1.548-2.977-1.977a.734.734 0 0 0-.068-.308 4.635 4.635 0 0 1-.077-.18l-.031-.077-.04-.1-.031-.078-.005-.011a18.178 18.178 0 0 0-.238-.582c-.184-.422-.43-.913-.78-1.35-.354-.442-.83-.848-1.473-1.062-.644-.216-1.384-.214-2.22.033zM8.432 16.917c-.253-.102-.495-.21-.727-.322a9.475 9.475 0 0 1-1.007-.562c-.061.05-.123.099-.183.146l-.126.099-.006.004-.219.173-.216.177-.093.08a5.083 5.083 0 0 0-.316.301c1.064.736 1.71.684 2.088.536.18-.072.343-.18.494-.31.11-.096.213-.206.31-.323zm-1.796-4.295a.774.774 0 0 1-.039.05c-.246.353-.32.596-.32.722 0 .131.087.398.462.771.36.358.91.736 1.62 1.08 1.42.688 3.365 1.188 5.397 1.188 1.22 0 2.37-.219 3.38-.556-.718-.903-1.158-1.965-1.104-3.079.056-1.169.65-2.3 1.858-3.284-1.183-.911-2.556-1.433-3.962-1.1-2.01.475-3.98 1.437-5.436 2.478-.728.52-1.307 1.045-1.694 1.516-.047.057-.09.11-.128.163a.679.679 0 0 1-.034.051zm12.021-2.44c-1.137.875-1.585 1.808-1.626 2.664-.044.9.355 1.826 1.088 2.647.27-.122.526-.25.765-.385.654-.367 1.159-.758 1.489-1.105a3.014 3.014 0 0 0 .266-.325c.028-.042.052-.081.072-.118a.64.64 0 0 0 .063-.148l.003-.017v-.002c0-.005-.002-.038-.018-.102a2.212 2.212 0 0 0-.09-.272 5.81 5.81 0 0 0-.407-.809 10.083 10.083 0 0 0-1.561-1.986l-.044-.043zm-15.26 1.956c.219.122.45.24.691.344.255.111.52.208.79.284a1.941 1.941 0 0 0-.033 1.135c-.478.112-.905.348-1.268.62a5.76 5.76 0 0 0-.532.457l.055-.248v-.005l.006-.022.001-.008.007-.031c.023-.102.046-.208.068-.315l.03-.149c.03-.166.059-.348.072-.538.015-.19.014-.388-.014-.584a5.605 5.605 0 0 0-.333-1.218c.149.096.303.189.46.278zm11.67-5.32c-.049-.124-.1-.25-.155-.376a5.81 5.81 0 0 0-.311-.623 3.286 3.286 0 0 0-.265-.388c-.224-.28-.476-.477-.777-.578-.298-.1-.717-.129-1.319.05-1.292.382-2.697 1.306-3.792 2.284a9.915 9.915 0 0 0-1.289 1.364c-.15.2-.256.37-.32.499-.025.05-.04.086-.049.112.072.054.211.117.42.169a3.67 3.67 0 0 0 .756.1c1.557-1.048 3.556-1.99 5.617-2.478a5.26 5.26 0 0 1 1.484-.136z"/>
</svg>
